img/arrow-6.svg

<svg fill="none" height="14" viewBox="0 0 16 14" width="16" xmlns="http://www.w3.org/2000/svg"><path d="m15.5987 7.59866c.3306-.33063.3306-.86669 0-1.19732l-5.3879-5.3879c-.33068-.330628-.86673-.330628-1.19736 0-.33063.33063-.33063.86668 0 1.19731l4.78926 4.78925-4.78926 4.7892c-.33063.3307-.33063.8667 0 1.1974.33063.3306.86668.3306 1.19736 0zm-14.14474-1.44529c-.467578 0-.846625.37905-.846625.84663s.379047.84663.846625.84663zm13.54604 0h-13.54604v1.69326h13.54604z" fill="#0080ff"/></svg>

<svg width="16" height="14" viewBox="0 0 16 14" fill="none" xmlns="http://www.w3.org/2000/svg">
<path d="M15.5987 7.59866C15.9293 7.26803 15.9293 6.73197 15.5987 6.40134L10.2108 1.01344C9.88012 0.682812 9.34407 0.682812 9.01344 1.01344C8.68281 1.34407 8.68281 1.88012 9.01344 2.21075L13.8027 7L9.01344 11.7892C8.68281 12.1199 8.68281 12.6559 9.01344 12.9866C9.34407 13.3172 9.88012 13.3172 10.2108 12.9866L15.5987 7.59866ZM1.45396 6.15337C0.986382 6.15337 0.607335 6.53242 0.607335 7C0.607335 7.46758 0.986382 7.84663 1.45396 7.84663V6.15337ZM15 6.15337L1.45396 6.15337V7.84663L15 7.84663V6.15337Z" fill="#0080FF"/>
</svg>
